src/Pure-Dark/16/symbolic/status/media-playlist-repeat-one-symbolic.svg

<?xml version="1.0" encoding="UTF-8" standalone="no"?>
<svg
   version="1.1"
   viewBox="0 0 16 16"
   id="svg2"
   sodipodi:docname="media-playlist-repeat-one-symbolic.svg"
   inkscape:version="1.4.2 (ebf0e940d0, 2025-05-08)"
   xmlns:inkscape="http://www.inkscape.org/namespaces/inkscape"
   xmlns:sodipodi="http://sodipodi.sourceforge.net/DTD/sodipodi-0.dtd"
   xmlns="http://www.w3.org/2000/svg"
   xmlns:svg="http://www.w3.org/2000/svg">
  <sodipodi:namedview
     id="namedview2"
     pagecolor="#ffffff"
     bordercolor="#000000"
     borderopacity="0.25"
     inkscape:showpageshadow="2"
     inkscape:pageopacity="0.0"
     inkscape:pagecheckerboard="0"
     inkscape:deskcolor="#d1d1d1"
     inkscape:zoom="49.6875"
     inkscape:cx="8"
     inkscape:cy="8"
     inkscape:window-width="1920"
     inkscape:window-height="1010"
     inkscape:window-x="0"
     inkscape:window-y="0"
     inkscape:window-maximized="1"
     inkscape:current-layer="svg2" />
  <defs
     id="defs1">
    <style
       id="current-color-scheme"
       type="text/css">.ColorScheme-Text {
        color:#f2f2f2;
      }</style>
  </defs>
  <path
     id="path1"
     d="m 3.9999998,2 c -1.108,0 -2,0.892 -2,2 V 7.0390625 C 2.0648348,7.0282255 2.1233958,7 2.1914058,7 h 0.808594 V 4 c 0,-0.554 0.446,-1 1,-1 H 13 L 10.464844,5.5351562 11.171875,6.2421875 14.707031,2.7070312 14,2 Z M 14,8.9609375 C 13.935165,8.9717745 13.876604,9 13.808594,9 H 13 v 3 c 0,0.554 -0.446,1 -1,1 H 2.9999998 L 5.5351558,10.464844 4.8281248,9.7578125 1.2929688,13.292969 1.9999998,14 H 12 c 1.108,0 2,-0.892 2,-2 z"
     style="fill:currentColor"
     class="ColorScheme-Text" />
  <path
     id="path2"
     style="fill:currentColor"
     class="ColorScheme-Text"
     d="M 7 5 L 7 6 L 8 6 L 8 10 L 7 10 L 7 11 L 10 11 L 10 10 L 9 10 L 9 5 L 7 5 z " />
</svg>

<svg version="1.1" viewBox="0 0 16 16" xmlns="http://www.w3.org/2000/svg">
 <defs>
  <style id="current-color-scheme" type="text/css">.ColorScheme-Text {
        color:#f2f2f2;
      }</style>
 </defs>
 <path d="m4 2c-1.108 0-2 0.892-2 2v3.0391c0.064835-0.010837 0.1234-0.039062 0.19141-0.039062h0.80859v-3c0-0.554 0.446-1 1-1h9l-2.5352 2.5352 0.70703 0.70703 3.5352-3.5352-0.70703-0.70703zm10 6.9609c-0.064835 0.010837-0.1234 0.039062-0.19141 0.039062h-0.80859v3c0 0.554-0.446 1-1 1h-9l2.5352-2.5352-0.70703-0.70703-3.5352 3.5352 0.70703 0.70703h10c1.108 0 2-0.892 2-2z" fill="#f2f2f2"/>
 <path d="m7 5v1h1v4h-1v1h1 1 1v-1h-1v-5h-1-1z" fill="#f2f2f2"/>
</svg>
